**kern	**kern	**kern	**kern
*staff3	*staff4	*staff1	*staff2
*clefF4	*clefF4	*clefG2	*clefG2
*k[f#c#]	*k[f#c#]	*k[f#c#]	*k[f#c#]
*M2/4	*M2/4	*M2/4	*M2/4
*D:	*D:	*D:	*D:
=-	=-	=-	=-
2r	4r	24ggLL	2r
.	.	24ee	.
.	.	24ggJ	.
.	.	24ff#L	.
.	.	24dd#	.
.	.	24ff#JJ	.
.	4AA 4A	24ggLL	.
.	.	24ee	.
.	.	24ggJ	.
.	.	24eeL	.
.	.	24cc#	.
.	.	24eeJJ	.
=285	=285	=285	=285
2r	4r	24ff#LL	2r
.	.	24dd	.
.	.	24ff#J	.
.	.	24ddL	.
.	.	24a	.
.	.	24ddJJ	.
.	8D) 8d	24aLL	.
.	.	24f#	.
.	.	24aJ	.
.	8r	24f#L	.
.	.	24d	.
.	.	24f#JJ	.
=286	=286	=286	=286
2r	4r	24gLL	2r
.	.	24e	.
.	.	24gJ	.
.	.	24f#L	.
.	.	24d#	.
.	.	24f#JJ	.
.	4AAA 4AA	24gLL	.
.	.	24e	.
.	.	24gJ	.
.	.	24eL	.
.	.	24c#	.
.	.	24eJJ	.
=287	=287	=287	=287
2r	4r	24f#LL	2r
.	.	24d	.
.	.	24f#J	.
.	.	24dL	.
.	.	24A	.
.	.	24dJJ	.
.	8DD) 8D	24ALL	.
.	.	24F#	.
.	.	24AJ	.
.	8r	24F#L	.
.	.	24D	.
.	.	24F#JJ	.
=288	=288	=288	=288
2r	24r	8C#L 8G	2r
.	(24AAALL	.	.
.	24BBBJ	.	.
.	32CC#LL	(8eeJ	.
.	32DD	.	.
.	32EE	.	.
.	32FF#JJJ)	.	.
.	24GGLL	8cc#L	.
.	24AA	.	.
.	24BBJ	.	.
.	24C#L	8gJ)	.
.	24BB	.	.
.	24AAJJ	.	.
=289	=289	=289	=289
2r	(24DLL	8f#L	2r
.	24DD	.	.
.	24EEJ	.	.
.	32FF#LL	(8aaJ	.
.	32GG	.	.
.	32AA	.	.
.	32BBJJJ)	.	.
.	24C#LL	8ff#L	.
.	24D	.	.
.	24EJ	.	.
.	24F#L	8ddJ)	.
.	24E	.	.
.	24DJJ	.	.
=290	=290	=290	=290
2r	8G	(24cc#LL	2r
.	.	24a	.
.	.	24bJ	.
.	8r	32cc#LL	.
.	.	32dd	.
.	.	32ee	.
.	.	32ff#JJJ)	.
.	4AA 4E 4G	24ggLL	.
.	.	24aa	.
.	.	24bbJ	.
.	.	24ccc#L	.
.	.	24bb	.
.	.	24aaJJ	.
=291	=291	=291	=291
2r	8D 8F#	24dddLL	2r
.	.	24aa	.
.	.	24ff#J	.
.	8r	24ddL	.
.	.	24a	.
.	.	24f#JJ	.
.	4r	8d	.
.	.	8r	.
=292	=292	=292	=292
*-	*-	*-	*-
